!!!!SEGMENT: pl-wtm--r-1420--004_stefani-jozef--mazur.krn
!!!cenid: 18xx:2427
!!!COM: Stefani, Józef
!!!COM-rismid: pe30024097
!!!CDT: 1800/04/16-1876/03/19
!!!CNT: Polish
!!!OTL: Mazur
!!!PDT:
!!!AGN: Secular; Mazurka
!!!SMS-siglum: PL-Wtm
!!!SMS-shelfmark: R 1420
!!!SMS-shelfwork: 004 W
!!!SMS-variant:
!!!SMS-altvar:
!!!NIFC-rismid: 1001116021
!!!URL-scan: http://repozytorium.nifc.pl/skany/pl-wtm-nut--r1420
!!!ONB-nifc: UWAGA: w zbiorze 1. Mazur, 2. Valc (od 3 systemu), 3. Valc (od 6 systemu), 4. Mazur
!!!OMD: Mazur
!!!AIN: 1 empty 1 forte
!!!key:
**kern	**kern
*part2	*part1
*staff2	*staff1
*Iforte	*Iempty
*I"fortepian	*
*clefF4	*clefG2
*k[f#c#]	*k[f#c#]
*D:	*D:
*M3/8	*M3/8
=1	=1
!	!LO:TX:t=P:problem=niezrozumiałe oznaczenia formy
8AA/	16.cc#\LL 16.ee
.	32dd\JJk 32ff#
*tremolo	*
8E\L 8A 8c#	8ee\L 8gg
8E\J 8A 8c#	16dd\L 16ff#
.	16ee\JJ 16gg
=2	=2
8DD/ 8D	8ff#\L 8aa
8F#\L 8A 8d	8dd\ 8ff#
8F#\J 8A 8d	8a\J 8dd
=3	=3
8AA/	16.a\LL 16.cc#
.	32b\JJk 32dd
8E\L 8G 8A	8cc#\L 8ee
8E\J 8G 8A	16cc#\L 16ee
.	16a\JJ 16cc#
=4	=4
8DD/ 8D	8dd\L
8D\L 8F# 8A	8dd\ 8ff#
8D\J 8F# 8A	8dd\J 8ff# 8aa
=5	=5
8AA/	16.cc#\LL 16.ee
.	32dd\JJk 32ff#
8E\L 8A 8c#	8ee\L 8gg
8E\J 8A 8c#	16dd\L 16ff#
.	16ee\JJ 16gg
=6	=6
8DD/ 8D	8ff#\L 8aa
8F#\L 8A 8d	8dd\ 8ff#
8F#\J 8A 8d	8dd\J 8ff# 8ddd
=7	=7
8AA\L 8C# 8E 8A	16.aa\LL 16.ccc#
.	32bb\JJk 32ddd
8AA\ 8C# 8E 8A	8ccc#\L 8eee
8AA\J 8C# 8E 8A	16ccc#\L 16eee
.	16gg\JJ 16ccc#
*Xtremolo	*
=8	=8
8D\ 8F# 8A	8ff#\ 8ddd
!	!LO:TX:t=P:problem=fermata na kresce taktowej
4D\ 4F# 4A	4ff#\ 4ddd
=9:|!	=9:|!
8A\	16.cc#\LL
.	32ee\JJk
*tremolo	*
8A\L 8c# 8e	8.aa\L
8A\J 8c# 8e	.
.	16a\Jk
=10	=10
8E\	8ee\L
8G#X\L 8B 8d	8gg#X\
8G#\J 8B 8d	8bb\J
=11	=11
*rep	*
8E\	16.gg#X\LL
.	32ee\JJk
8G#X\L 8B 8d	8b\L 8dd
8G#\J 8B 8d	16b\L 16dd
.	16cc#\JJ
*Xrep	*
=12	=12
8AA\	8ee\L
8C#\L 8E 8A	8aa\
8C#\J 8E 8A	8ccc#\J
=13	=13
*rep	*
8AA\	16.aa\LL
.	32ccc#\JJk
8C#\L 8E 8A	8eee\L
8C#\J 8E 8A	8ccc#\J
*Xrep	*
*Xtremolo	*
=14	=14
8D\L	16bb\LL
.	16aa#X\
8F#\ 8B	16bb\
.	16ccc#\
8F#\J 8B	16ddd\
.	16eee\JJ
=15	=15
*tremolo	*
8E\L 8G#X 8B 8d	16fff#\LL
.	16eee\
8E\ 8G# 8B 8d	16ddd\
.	16ccc#\
8E\J 8G# 8B 8d	16ddd\
.	16bb\JJ
*Xtremolo	*
=16	=16
8A\ 8c# 8e	16aa\LL
.	16gg#X\
8r	16bb\
.	16aan\
8r	16ggn\
!	!LO:TX:b:t=da Capo
.	16ff#\JJ
!!LO:LB:g=original
=17||	=17||
*k[f#]	*k[f#]
*M3/8	*M3/8
!	!LO:TX:t=P::problem=błędne oznaczenie metryczne&colon; 3/4
!	!LO:TX:b:t=Trio.
8G\L	(8.b\L
8B\ 8d	.
.	16dd\L
8B\J 8d	16cc#X\
.	16dd\JJ
=18	=18
*rep	*
8G\L	8.gg\L)
8B\ 8d	.
.	16dd\L
8B\J 8d	16cc#X\
.	16dd\JJ
*Xrep	*
=19	=19
8D\L	8.ee\L
8F#\ 8A	.
.	16dd\L
8F#\J 8A	16cc\
.	16a\JJ
=20	=20
8GG\ 8G	16g\LL
.	16b\
*tremolo	*
8G\L 8B 8d	16dd\
.	16gg\
8G\J 8B 8d	16bb\
.	16gg\JJ
=21	=21
*rep	*
8GG\ 8G	(8.b\L
8G\L 8B 8d	.
.	16dd\L
8G\J 8B 8d	16cc#X\
.	16dd\JJ
*Xrep	*
=22	=22
*rep	*
8GG\ 8G	8.gg\L)
8G\L 8B 8d	.
.	16dd\L
8G\J 8B 8d	16cc#X\
.	16dd\JJ
*Xrep	*
*Xtremolo	*
=23	=23
8D\ 8F# 8A 8c	8.ff#\L
4D\ 4F# 4A 4c	.
.	(>16ee\L
.	16cc\
.	16a\JJ
=24	=24
!LO:TX:t=P:problem=mixed beam	!
8G\L 8B	4g/)
8GG/J	.
!	!LO:TX:b:t=vide&colon;
8r	8r
=25:|!	=25:|!
*k[f#c#]	*k[f#c#]
*M3/8	*M3/8
!	!LO:TX:b:t=Mazur
8DD/ 8D	16a\LL
.	16dd\J
*tremolo	*
8A\L 8d 8f#	8cc#\
8A\J 8d 8f#	8dd\J
=26	=26
*rep	*
8DD/ 8D	16ff#\LL
.	16ee\JJ
8A\L 8d 8f#	4dd\
8A\J 8d 8f#	.
*Xrep	*
=27	=27
*rep	*
8DD/ 8D	16ff#\LL
.	16aa\J
8A\L 8d 8f#	8gg#X\
8A\J 8d 8f#	8aa\J
*Xrep	*
=28	=28
*rep	*
8DD/ 8D	16bb\LL
.	16aa\JJ
8A\L 8d 8f#	4ff#\
8A\J 8d 8f#	.
*Xrep	*
=29	=29
!	!LO:TUP:a
!	!LO:TX:t=P:global:problem=klamra łukowa
8AAA/ 8AA	24aa\LL
.	24bb\
.	24aa\JJ
8A\L 8e	8gg\L
8A\J 8e	16ee\L
.	16cc#\JJ
=30	=30
8D/	16dd\LL
.	16ff#\
8F#\L 8A 8d	16aa\
.	16ddd\J
8F#\J 8A 8d	8fff#\J
=31	=31
!	!LO:TUP:a
8AAA/ 8AA	24aa\LL
.	24bb\
.	24aa\JJ
8A\L 8c# 8e	8gg\L
!	!LO:N:vis=8
8A\J 8c# 8e	16ee\L
!	!LO:N:vis=8
.	16cc#\JJ
*Xtremolo	*
!!LO:LB:g=original
=32	=32
8d\ 8f#	8dd\
4D/	4f#/ 4a 4dd
=33:|!|:	=33:|!|:
8AA/ 8A	16cc#\LL
.	16ee\J
*tremolo	*
8A\L 8c# 8e	8dd#X\
8A\J 8c# 8e	8ee\J
=34	=34
*rep	*
8AA/ 8A	8aa\L
8A\L 8c# 8e	8ee\
8A\J 8c# 8e	8cc#\J
*Xrep	*
=35	=35
!	!LO:TUP:a
8EE/ 8E	24ee\LL
.	24ff#\
.	24ee\JJ
8E\L 8G#X 8B 8d	8dd\L
8E\J 8G# 8B 8d	8b\J
=36	=36
*	*Xtuplet
!	!LO:TX:t=P:problem=brak klamry
8AA/ 8A	24ee\LL
.	24ff#\
.	24ee\JJ
8E\L 8A 8c#	8cc#\L
8E\J 8A 8c#	8a\J
=37	=37
8AA/ 8A	16cc#\LL
.	16ee\J
8A\L 8c# 8e	8dd#X\
8A\J 8c# 8e	8ee\J
=38	=38
*rep	*
8AA/ 8A	8aa\L
8A\L 8c# 8e	8ee\
8A\J 8c# 8e	8cc#\J
*Xrep	*
*Xtremolo	*
=39	=39
!	!LO:TX:t=P:problem=brak klamry
8EE/ 8E	24ee\LL
.	24ff#\
.	24ee\JJ
4E\ 4G#X 4B 4d	8dd\L
.	16b\L
!	!LO:SIC:v:s=16g#
.	16g\JJ
=40	=40
8A\ 8c#	8a/
!	!LO:TX:b:t=da Capo
4AA/	4a\ 4cc# 4ee 4aa
=41:|!	=41:|!
*k[f#]	*k[f#]
.	8qb/ 8qdd
8GG/ 8G	16bb\LL
.	16aa\
.	8qaa/
*tremolo	*
8D\L 8G 8B	16gg\
.	16ff#\
8D\J 8G 8B	16gg\
.	16ee\JJ
=42	=42
*rep	*
!	!LO:TX:t=P:problem=brak klamry
8GG/ 8G	24dd\LL
.	24ee\
.	24dd\JJ
8D\L 8G 8B	8b\L
8D\J 8G 8B	8dd\J
*Xrep	*
=43	=43
8DD/ 8D	16cc\LL
.	16dd\
8D\L 8F# 8A	16ff#\
.	16ee\
8D\J 8F# 8A	16ff#\
.	16aa\JJ
=44	=44
8GG/ 8G	16bb\LL
.	16aa\JJ
8D\L 8G 8B	8.gg\L
8D\J 8G 8B	.
.	16dd\Jk
=45	=45
*rep	*
8GG/ 8G	16bb\LL
.	16aa\
.	8qaa/
8D\L 8G 8B	16gg\
.	16ff#\
8D\J 8G 8B	16gg\
.	16ee\JJ
*Xrep	*
=46	=46
*rep	*
!	!LO:TX:t=P:problem=brak klamry
8GG/ 8G	24dd\LL
.	24ee\
.	24dd\JJ
8D\L 8G 8B	8b\L
8D\J 8G 8B	8dd\J
*Xrep	*
=47	=47
8D\L 8F# 8A 8c	16cc\LL
.	16dd\
8D\ 8F# 8A 8c	16ff#\
.	16aa\
8D\J 8F# 8A 8c	16ccc\
.	16ff#\JJ
=48	=48
8G\ 8B	16aa\LL
.	16gg\JJ
!	!LO:TX:b:t=Fine
4GG/ 4G	4gg\
=:|!	=:|!
*-	*-
!!!system-decoration: {(s1,s2)}
!!!RDF**kern: > = above
!!!RDF**kern: < = below
!!!EED: Andrzej Borzym
!!!EEV: 2021-06-25
!!!ENC: Krzysztof Stępień
!!!END: 2021-06-18
